X: 67
T: The Sweets Of May
B: begged borrowed and stolen
M:6/8
L:1/8
R: jig
Q: 3/8=100
K:Dmajor
V:1 
a|:f2 d ecA|ded d2 e|f2 d def|gfg a2 g|
 fed ecA|ded dag|fed ecA|1 d3 d2 a:|2 d3 d2||
 |:efe e2 d|B2 c d2 ^d|efe e2 g|b2 a g2 f|
 efe e2 d|B2 c d2 ^d|eee fed|efe e2:|
 |:a3 a^ga|A3 A2 f|g3 gfg|A2 A A/F/G/A/B/c/|
 d2 A d2 e|f2 d f2 g|aAA ABc|1 ded d2:|2 ded dag||
% abcbook-tune_id 62828a3a7da8adb2367c1a03


% abcbook-boost 0
% abcbook-tablature 
% abcbook-transpose 
% abcbook-lastupdated 1652725431099
% abcbook-soundfonts 
% abcbook-repeats 3
% abc-sessionorg_id 8252
% abc-sessionorg_setting 0
% abc-sessionorg_setting_id 30176
% abc-boost 0

